tools/download-figma-icons/icons/solid/contract-amendents.svg

<svg width="24" height="24" viewBox="0 0 24 24" fill="none" xmlns="http://www.w3.org/2000/svg">
<path d="M19.5 0H8.25C8.13357 0 8.01873 0.0271088 7.91459 0.0791796C7.81045 0.13125 7.71986 0.206853 7.65 0.3L3.15 6.3C3.05263 6.42982 3 6.58772 3 6.75V22.5C3 22.8978 3.15804 23.2794 3.43934 23.5607C3.72064 23.842 4.10218 24 4.5 24H19.5C19.8978 24 20.2794 23.842 20.5607 23.5607C20.842 23.2794 21 22.8978 21 22.5V1.5C21 1.10218 20.842 0.720644 20.5607 0.43934C20.2794 0.158035 19.8978 0 19.5 0V0ZM6.66 18.915L8.535 17.415C8.67869 17.2997 8.85979 17.2413 9.04376 17.251C9.22773 17.2607 9.4017 17.3378 9.5325 17.4675L10.8075 18.75H12.75C12.9489 18.75 13.1397 18.829 13.2803 18.9697C13.421 19.1103 13.5 19.3011 13.5 19.5C13.5 19.6989 13.421 19.8897 13.2803 20.0303C13.1397 20.171 12.9489 20.25 12.75 20.25H10.5C10.4013 20.2506 10.3034 20.2317 10.2121 20.1943C10.1207 20.157 10.0376 20.102 9.9675 20.0325L8.9475 19.005L7.59 20.085C7.45805 20.1909 7.29417 20.249 7.125 20.25C7.01235 20.2495 6.90126 20.2236 6.79998 20.1742C6.6987 20.1249 6.60985 20.0534 6.54 19.965C6.41737 19.8096 6.36116 19.612 6.38364 19.4153C6.40612 19.2186 6.50546 19.0387 6.66 18.915ZM6 12.75C6 12.5511 6.07902 12.3603 6.21967 12.2197C6.36032 12.079 6.55109 12 6.75 12H12C12.1989 12 12.3897 12.079 12.5303 12.2197C12.671 12.3603 12.75 12.5511 12.75 12.75C12.75 12.9489 12.671 13.1397 12.5303 13.2803C12.3897 13.421 12.1989 13.5 12 13.5H6.75C6.55109 13.5 6.36032 13.421 6.21967 13.2803C6.07902 13.1397 6 12.9489 6 12.75ZM6.75 10.5C6.55109 10.5 6.36032 10.421 6.21967 10.2803C6.07902 10.1397 6 9.94891 6 9.75C6 9.55109 6.07902 9.36032 6.21967 9.21967C6.36032 9.07902 6.55109 9 6.75 9H17.25C17.4489 9 17.6397 9.07902 17.7803 9.21967C17.921 9.36032 18 9.55109 18 9.75C18 9.94891 17.921 10.1397 17.7803 10.2803C17.6397 10.421 17.4489 10.5 17.25 10.5H6.75ZM17.25 5.25H15C14.8011 5.25 14.6103 5.17098 14.4697 5.03033C14.329 4.88968 14.25 4.69891 14.25 4.5C14.25 4.30109 14.329 4.11032 14.4697 3.96967C14.6103 3.82902 14.8011 3.75 15 3.75H17.25C17.4489 3.75 17.6397 3.82902 17.7803 3.96967C17.921 4.11032 18 4.30109 18 4.5C18 4.69891 17.921 4.88968 17.7803 5.03033C17.6397 5.17098 17.4489 5.25 17.25 5.25Z" fill="black"/>
</svg>

<svg xmlns="http://www.w3.org/2000/svg" width="24" height="24" fill="none" viewBox="0 0 24 24"><path fill="currentColor" d="M19.5 0H8.25a.75.75 0 0 0-.6.3l-4.5 6a.75.75 0 0 0-.15.45V22.5A1.5 1.5 0 0 0 4.5 24h15a1.5 1.5 0 0 0 1.5-1.5v-21A1.5 1.5 0 0 0 19.5 0M6.66 18.915l1.875-1.5a.75.75 0 0 1 .998.053l1.274 1.282h1.943a.75.75 0 1 1 0 1.5H10.5a.75.75 0 0 1-.533-.218l-1.02-1.027-1.357 1.08a.75.75 0 0 1-.465.165.749.749 0 0 1-.465-1.335M6 12.75a.75.75 0 0 1 .75-.75H12a.75.75 0 1 1 0 1.5H6.75a.75.75 0 0 1-.75-.75m.75-2.25a.75.75 0 1 1 0-1.5h10.5a.75.75 0 1 1 0 1.5zm10.5-5.25H15a.75.75 0 1 1 0-1.5h2.25a.75.75 0 1 1 0 1.5"/></svg>
